static/img/kroki/f0fea2f59f2786aa9b3cabbae9b89a73.svg

<?xml version="1.0" encoding="us-ascii" standalone="no"?><svg xmlns="http://www.w3.org/2000/svg" xmlns:xlink="http://www.w3.org/1999/xlink" contentStyleType="text/css" height="714px" preserveAspectRatio="none" style="width:368px;height:714px;" version="1.1" viewBox="0 0 368 714" width="368px" zoomAndPan="magnify"><defs/><g><!--class digitalocean_firewall--><g id="elem_digitalocean_firewall"><rect codeLine="22" fill="#3D176E" height="74.0859" id="digitalocean_firewall" rx="2.5" ry="2.5" style="stroke:#000D19;stroke-width:0.5;" width="215" x="36" y="633.84"/><ellipse cx="51" cy="653.7345" fill="#ADD1B2" rx="11" ry="11" style="stroke:#181818;stroke-width:1.0;"/><path d="M53.9688,659.3752 Q53.3906,659.672 52.75,659.8127 Q52.1094,659.9689 51.4063,659.9689 Q48.9063,659.9689 47.5781,658.3283 Q46.2656,656.672 46.2656,653.547 Q46.2656,650.422 47.5781,648.7658 Q48.9063,647.1095 51.4063,647.1095 Q52.1094,647.1095 52.75,647.2658 Q53.4063,647.422 53.9688,647.7189 L53.9688,650.4377 Q53.3438,649.8595 52.75,649.5939 Q52.1563,649.3127 51.5313,649.3127 Q50.1875,649.3127 49.5,650.3908 Q48.8125,651.4533 48.8125,653.547 Q48.8125,655.6408 49.5,656.7189 Q50.1875,657.7814 51.5313,657.7814 Q52.1563,657.7814 52.75,657.5158 Q53.3438,657.2345 53.9688,656.6564 L53.9688,659.3752 Z " fill="#000000"/><text fill="#D9B8FF" font-family="Helvetica" font-size="17" lengthAdjust="spacing" textLength="173" x="70" y="659.6198">digitalocean_firewall</text><line style="stroke:#000D19;stroke-width:0.5;" x1="37" x2="250" y1="673.6291" y2="673.6291"/><text fill="#D9B8FF" font-family="sans-serif" font-size="14" font-weight="bold" lengthAdjust="spacing" textLength="114" x="47" y="695.6242">firewall_status</text><text fill="#D9B8FF" font-family="sans-serif" font-size="14" lengthAdjust="spacing" textLength="48" x="161" y="695.6242">: string</text></g><!--class digitalocean_resource--><g id="elem_digitalocean_resource"><rect codeLine="25" fill="#3D176E" height="74.0859" id="digitalocean_resource" rx="2.5" ry="2.5" style="stroke:#000D19;stroke-width:0.5;" width="223" x="138" y="438.76"/><ellipse cx="153" cy="458.6545" fill="#ADD1B2" rx="11" ry="11" style="stroke:#181818;stroke-width:1.0;"/><path d="M155.9688,464.2952 Q155.3906,464.592 154.75,464.7327 Q154.1094,464.8889 153.4063,464.8889 Q150.9063,464.8889 149.5781,463.2483 Q148.2656,461.592 148.2656,458.467 Q148.2656,455.342 149.5781,453.6858 Q150.9063,452.0295 153.4063,452.0295 Q154.1094,452.0295 154.75,452.1858 Q155.4063,452.342 155.9688,452.6389 L155.9688,455.3577 Q155.3438,454.7795 154.75,454.5139 Q154.1563,454.2327 153.5313,454.2327 Q152.1875,454.2327 151.5,455.3108 Q150.8125,456.3733 150.8125,458.467 Q150.8125,460.5608 151.5,461.6389 Q152.1875,462.7014 153.5313,462.7014 Q154.1563,462.7014 154.75,462.4358 Q155.3438,462.1545 155.9688,461.5764 L155.9688,464.2952 Z " fill="#000000"/><text fill="#D9B8FF" font-family="Helvetica" font-size="17" lengthAdjust="spacing" textLength="181" x="172" y="464.5398">digitalocean_resource</text><line style="stroke:#000D19;stroke-width:0.5;" x1="139" x2="360" y1="478.5491" y2="478.5491"/><text fill="#D9B8FF" font-family="sans-serif" font-size="14" font-weight="bold" lengthAdjust="spacing" textLength="27" x="149" y="500.5442">urn</text><text fill="#D9B8FF" font-family="sans-serif" font-size="14" lengthAdjust="spacing" textLength="48" x="176" y="500.5442">: string</text></g><!--class resource--><g id="elem_resource"><rect codeLine="28" fill="#3D176E" height="310.7578" id="resource" rx="2.5" ry="2.5" style="stroke:#000D19;stroke-width:0.5;" width="227" x="7" y="7"/><ellipse cx="75.75" cy="26.8945" fill="#ADD1B2" rx="11" ry="11" style="stroke:#181818;stroke-width:1.0;"/><path d="M78.7188,32.5352 Q78.1406,32.832 77.5,32.9727 Q76.8594,33.1289 76.1563,33.1289 Q73.6563,33.1289 72.3281,31.4883 Q71.0156,29.832 71.0156,26.707 Q71.0156,23.582 72.3281,21.9258 Q73.6563,20.2695 76.1563,20.2695 Q76.8594,20.2695 77.5,20.4258 Q78.1563,20.582 78.7188,20.8789 L78.7188,23.5977 Q78.0938,23.0195 77.5,22.7539 Q76.9063,22.4727 76.2813,22.4727 Q74.9375,22.4727 74.25,23.5508 Q73.5625,24.6133 73.5625,26.707 Q73.5625,28.8008 74.25,29.8789 Q74.9375,30.9414 76.2813,30.9414 Q76.9063,30.9414 77.5,30.6758 Q78.0938,30.3945 78.7188,29.8164 L78.7188,32.5352 Z " fill="#000000"/><text fill="#D9B8FF" font-family="Helvetica" font-size="17" lengthAdjust="spacing" textLength="71" x="101.25" y="32.7798">resource</text><line style="stroke:#000D19;stroke-width:0.5;" x1="8" x2="233" y1="46.7891" y2="46.7891"/><text fill="#D9B8FF" font-family="sans-serif" font-size="14" font-weight="bold" lengthAdjust="spacing" textLength="29" x="18" y="68.7842">age</text><text fill="#D9B8FF" font-family="sans-serif" font-size="14" lengthAdjust="spacing" textLength="66" x="47" y="68.7842">: duration</text><text fill="#D9B8FF" font-family="sans-serif" font-size="14" font-weight="bold" lengthAdjust="spacing" textLength="43" x="18" y="95.0811">atime</text><text fill="#D9B8FF" font-family="sans-serif" font-size="14" lengthAdjust="spacing" textLength="70" x="61" y="95.0811">: datetime</text><text fill="#D9B8FF" font-family="sans-serif" font-size="14" font-weight="bold" lengthAdjust="spacing" textLength="43" x="18" y="121.3779">ctime</text><text fill="#D9B8FF" font-family="sans-serif" font-size="14" lengthAdjust="spacing" textLength="70" x="61" y="121.3779">: datetime</text><text fill="#D9B8FF" font-family="sans-serif" font-size="14" font-weight="bold" lengthAdjust="spacing" textLength="14" x="18" y="147.6748">id</text><text fill="#D9B8FF" font-family="sans-serif" font-size="14" lengthAdjust="spacing" textLength="48" x="32" y="147.6748">: string</text><text fill="#D9B8FF" font-family="sans-serif" font-size="14" font-weight="bold" lengthAdjust="spacing" textLength="33" x="18" y="173.9717">kind</text><text fill="#D9B8FF" font-family="sans-serif" font-size="14" lengthAdjust="spacing" textLength="48" x="51" y="173.9717">: string</text><text fill="#D9B8FF" font-family="sans-serif" font-size="14" font-weight="bold" lengthAdjust="spacing" textLength="90" x="18" y="200.2686">last_access</text><text fill="#D9B8FF" font-family="sans-serif" font-size="14" lengthAdjust="spacing" textLength="66" x="108" y="200.2686">: duration</text><text fill="#D9B8FF" font-family="sans-serif" font-size="14" font-weight="bold" lengthAdjust="spacing" textLength="90" x="18" y="226.5654">last_update</text><text fill="#D9B8FF" font-family="sans-serif" font-size="14" lengthAdjust="spacing" textLength="66" x="108" y="226.5654">: duration</text><text fill="#D9B8FF" font-family="sans-serif" font-size="14" font-weight="bold" lengthAdjust="spacing" textLength="48" x="18" y="252.8623">mtime</text><text fill="#D9B8FF" font-family="sans-serif" font-size="14" lengthAdjust="spacing" textLength="70" x="66" y="252.8623">: datetime</text><text fill="#D9B8FF" font-family="sans-serif" font-size="14" font-weight="bold" lengthAdjust="spacing" textLength="43" x="18" y="279.1592">name</text><text fill="#D9B8FF" font-family="sans-serif" font-size="14" lengthAdjust="spacing" textLength="48" x="61" y="279.1592">: string</text><text fill="#D9B8FF" font-family="sans-serif" font-size="14" font-weight="bold" lengthAdjust="spacing" textLength="34" x="18" y="305.4561">tags</text><text fill="#D9B8FF" font-family="sans-serif" font-size="14" lengthAdjust="spacing" textLength="171" x="52" y="305.4561">: dictionary[string, string]</text></g><!--reverse link digitalocean_resource to digitalocean_firewall--><g id="link_digitalocean_resource_digitalocean_firewall"><path codeLine="40" d="M219.59,531.28 C201.66,563.94 179.34,604.59 163.53,633.4 " fill="none" id="digitalocean_resource-backto-digitalocean_firewall" style="stroke:#FFAF37;stroke-width:2.0;"/><polygon fill="none" points="213.8,528.28,229.56,514.12,226.07,535.02,213.8,528.28" style="stroke:#FFAF37;stroke-width:2.0;"/></g><!--reverse link resource to digitalocean_firewall--><g id="link_resource_digitalocean_firewall"><path codeLine="41" d="M115.52,338.6 C115.27,394.36 116.38,456.25 120.5,512.84 C123.53,554.48 131.03,601.84 136.65,633.56 " fill="none" id="resource-backto-digitalocean_firewall" style="stroke:#FFAF37;stroke-width:2.0;"/><polygon fill="none" points="108.52,338.9,115.67,318.95,122.52,339,108.52,338.9" style="stroke:#FFAF37;stroke-width:2.0;"/></g><!--reverse link resource to digitalocean_resource--><g id="link_resource_digitalocean_resource"><path codeLine="42" d="M192.59,337.4 C208.48,375.78 223.75,412.65 234.47,438.51 " fill="none" id="resource-backto-digitalocean_resource" style="stroke:#FFAF37;stroke-width:2.0;"/><polygon fill="none" points="185.81,340.33,184.62,319.18,198.74,334.98,185.81,340.33" style="stroke:#FFAF37;stroke-width:2.0;"/></g><!--SRC=[fPDFQy904CNlVee5Rw62Lbgrz6A5qbwarDvAaN5t4XUJtJ0xgTW_txrPenAJg8VUp7k_VVDcmALMA319UICIJ1P8hkLMsgH0a8WnaLrFR6n9jCCGmlwWQZvQmnU1AIGedZ3-HDOIgiJRKikLGUV4TSbw0BcAo6P65V5CO5nkeU4IDOd1kJ4pwKN6M2gZHejX65R9QcYxhtg3MwnXbXJI3kbskwetgY8NHvtT-q3Cz1UANlbeKyjOgraRiQNEjlH4gMHjqRr_ikCBAALD96vAsclHYGpIaJvRWh9hJuSGk_8OnqXeUPFYfBOLZeOg73J2pwTWwIydb8uqGsmbWfc7cd0DSIo-Mq6m_vWx1ivS4DpbgPGtQ_qslILqDYE9sxSPcGR-2848FQ8o0jRMU8LrKcZ0w7_dccpGj2fb1q6-yx6Gp-8vI9d_3oeJjawM-goAapJCCL18Xs26g4ZKqZy3shmNtjME-SXNRJxA_K-dqsa-TklVqDxx0m00]--></g></svg>

<svg xmlns="http://www.w3.org/2000/svg" width="368" height="714" preserveAspectRatio="none" style="width:368px;height:714px"><rect width="215" height="74.086" x="36" y="633.84" fill="#3D176E" rx="2.5" ry="2.5" style="stroke:#000d19;stroke-width:.5"/><circle cx="51" cy="653.735" r="11" fill="#ADD1B2" style="stroke:#181818;stroke-width:1"/><path d="M53.969 659.375q-.578.297-1.219.438-.64.156-1.344.156-2.5 0-3.828-1.64-1.312-1.657-1.312-4.782t1.312-4.781q1.328-1.656 3.828-1.656.703 0 1.344.156.656.156 1.219.453v2.719q-.625-.578-1.219-.844-.594-.281-1.219-.281-1.343 0-2.031 1.078-.688 1.062-.688 3.156 0 2.094.688 3.172.688 1.062 2.031 1.062.625 0 1.219-.265.594-.281 1.219-.86v2.72Z"/><text x="70" y="659.62" fill="#D9B8FF" font-family="Helvetica" font-size="17" textLength="173">digitalocean_firewall</text><path d="M37 673.629h213" style="stroke:#000d19;stroke-width:.5"/><text x="47" y="695.624" fill="#D9B8FF" font-family="sans-serif" font-size="14" font-weight="bold" textLength="114">firewall_status</text><text x="161" y="695.624" fill="#D9B8FF" font-family="sans-serif" font-size="14" textLength="48">: string</text><rect width="223" height="74.086" x="138" y="438.76" fill="#3D176E" rx="2.5" ry="2.5" style="stroke:#000d19;stroke-width:.5"/><circle cx="153" cy="458.654" r="11" fill="#ADD1B2" style="stroke:#181818;stroke-width:1"/><path d="M155.969 464.295q-.578.297-1.219.438-.64.156-1.344.156-2.5 0-3.828-1.64-1.312-1.657-1.312-4.782t1.312-4.781q1.328-1.656 3.828-1.656.703 0 1.344.156.656.156 1.219.453v2.719q-.625-.579-1.219-.844-.594-.281-1.219-.281-1.344 0-2.031 1.078-.688 1.062-.688 3.156 0 2.094.688 3.172.688 1.062 2.031 1.062.625 0 1.219-.265.594-.281 1.219-.86v2.72Z"/><text x="172" y="464.54" fill="#D9B8FF" font-family="Helvetica" font-size="17" textLength="181">digitalocean_resource</text><path d="M139 478.549h221" style="stroke:#000d19;stroke-width:.5"/><text x="149" y="500.544" fill="#D9B8FF" font-family="sans-serif" font-size="14" font-weight="bold" textLength="27">urn</text><text x="176" y="500.544" fill="#D9B8FF" font-family="sans-serif" font-size="14" textLength="48">: string</text><rect width="227" height="310.758" x="7" y="7" fill="#3D176E" rx="2.5" ry="2.5" style="stroke:#000d19;stroke-width:.5"/><circle cx="75.75" cy="26.895" r="11" fill="#ADD1B2" style="stroke:#181818;stroke-width:1"/><path d="M78.719 32.535q-.578.297-1.219.438-.64.156-1.344.156-2.5 0-3.828-1.64-1.312-1.657-1.312-4.782t1.312-4.781q1.328-1.656 3.828-1.656.703 0 1.344.156.656.156 1.219.453v2.719q-.625-.578-1.219-.844-.594-.281-1.219-.281-1.344 0-2.031 1.078-.688 1.062-.688 3.156 0 2.094.688 3.172.688 1.062 2.031 1.062.625 0 1.219-.265.594-.281 1.219-.86v2.72Z"/><text x="101.25" y="32.78" fill="#D9B8FF" font-family="Helvetica" font-size="17" textLength="71">resource</text><path d="M8 46.789h225" style="stroke:#000d19;stroke-width:.5"/><text x="18" y="68.784" fill="#D9B8FF" font-family="sans-serif" font-size="14" font-weight="bold" textLength="29">age</text><text x="47" y="68.784" fill="#D9B8FF" font-family="sans-serif" font-size="14" textLength="66">: duration</text><text x="18" y="95.081" fill="#D9B8FF" font-family="sans-serif" font-size="14" font-weight="bold" textLength="43">atime</text><text x="61" y="95.081" fill="#D9B8FF" font-family="sans-serif" font-size="14" textLength="70">: datetime</text><text x="18" y="121.378" fill="#D9B8FF" font-family="sans-serif" font-size="14" font-weight="bold" textLength="43">ctime</text><text x="61" y="121.378" fill="#D9B8FF" font-family="sans-serif" font-size="14" textLength="70">: datetime</text><text x="18" y="147.675" fill="#D9B8FF" font-family="sans-serif" font-size="14" font-weight="bold" textLength="14">id</text><text x="32" y="147.675" fill="#D9B8FF" font-family="sans-serif" font-size="14" textLength="48">: string</text><text x="18" y="173.972" fill="#D9B8FF" font-family="sans-serif" font-size="14" font-weight="bold" textLength="33">kind</text><text x="51" y="173.972" fill="#D9B8FF" font-family="sans-serif" font-size="14" textLength="48">: string</text><text x="18" y="200.269" fill="#D9B8FF" font-family="sans-serif" font-size="14" font-weight="bold" textLength="90">last_access</text><text x="108" y="200.269" fill="#D9B8FF" font-family="sans-serif" font-size="14" textLength="66">: duration</text><text x="18" y="226.565" fill="#D9B8FF" font-family="sans-serif" font-size="14" font-weight="bold" textLength="90">last_update</text><text x="108" y="226.565" fill="#D9B8FF" font-family="sans-serif" font-size="14" textLength="66">: duration</text><text x="18" y="252.862" fill="#D9B8FF" font-family="sans-serif" font-size="14" font-weight="bold" textLength="48">mtime</text><text x="66" y="252.862" fill="#D9B8FF" font-family="sans-serif" font-size="14" textLength="70">: datetime</text><text x="18" y="279.159" fill="#D9B8FF" font-family="sans-serif" font-size="14" font-weight="bold" textLength="43">name</text><text x="61" y="279.159" fill="#D9B8FF" font-family="sans-serif" font-size="14" textLength="48">: string</text><text x="18" y="305.456" fill="#D9B8FF" font-family="sans-serif" font-size="14" font-weight="bold" textLength="34">tags</text><text x="52" y="305.456" fill="#D9B8FF" font-family="sans-serif" font-size="14" textLength="171">: dictionary[string, string]</text><g fill="none"><path d="M219.59 531.28c-17.93 32.66-40.25 73.31-56.06 102.12" style="stroke:#ffaf37;stroke-width:2"/><path d="m213.8 528.28 15.76-14.16-3.49 20.9-12.27-6.74z" style="stroke:#ffaf37;stroke-width:2"/></g><g fill="none"><path d="M115.52 338.6c-.25 55.76.86 117.65 4.98 174.24 3.03 41.64 10.53 89 16.15 120.72" style="stroke:#ffaf37;stroke-width:2"/><path d="m108.52 338.9 7.15-19.95 6.85 20.05-14-.1z" style="stroke:#ffaf37;stroke-width:2"/></g><g fill="none"><path d="M192.59 337.4c15.89 38.38 31.16 75.25 41.88 101.11" style="stroke:#ffaf37;stroke-width:2"/><path d="m185.81 340.33-1.19-21.15 14.12 15.8-12.93 5.35z" style="stroke:#ffaf37;stroke-width:2"/></g></svg>
